X: 1
T:Helen Black of Iveran  "Arr. Iain MacCrimmon"
M:C|
L:1/8
Q:80
C:J. Ritchie
S:March
K:HP
|: {g}e3/4d/4|
{g}c3/4d/4{g}c3/4B/4{g}B3/4{d}A/4{e}A3/4{d}c/4|
{g}e3/4f/4e/4{g}c3/4{gef}e{g}f3/4g/4|  !
a3/4g/4{a}g3/4f/4{g}f3/4e3/8{A}e3/4c/4|
{g}c3/4f/4{g}e3/4c/4{gBG}B{gef}e3/4d/4|
{g}c3/4d/4{g}c3/4B/4{g}B3/4{d}A/4{e}A3/4{d}c/4|  !
{g}e3/4f/4e/4{g}c3/4{gef}e{g}f3/4g/4|
a3/4f/4d/4{e}B3/4{gef}e3/4d/4{g}c/4{d}B/2|
{gcd}c{e}A{GAG}A:| |:  !
d|
{g}c3/4e/4{A}e3/4f/4{g}f3/4e/4{A}e3/4B/4|
{g}c3/4e/4{A}e3/4f/4{gef}e{g}f3/4g/4|
a3/4g/4{a}g3/4f/4{g}f3/4e3/8{A}e3/4c/4|  !
{g}c3/4f/4{g}e3/4c/4{gBG}Bd|
{g}c3/4e/4{A}e3/4f/4{g}f3/4e/4{A}e3/4B/4|
{g}c3/4e/4{A}e3/4f/4{gef}e{g}f3/4g/4|  !
a3/4f/4d/4{e}B3/4{gef}e3/4d/4{g}c/4{d}B/2|
{gcd}c{e}A{GAG}A:| |:
a|  !
{ef}e3/4c/4{G}c3/4B/4{g}A3/4c/4{G}c3/4e/4|
{g}f3/4c/4{G}c3/4B/4{gcd}c{g}f3/4g/4|
a3/4f/4{e}f3/4d/4{g}A3/4d/4{c}d3/4f/4|  !
{g}f3/4e/4{A}e3/4c/4{gBG}B{ag}a|
{ef}e3/4c/4{G}c3/4B/4{g}A3/4c/4{G}c3/4e/4|
{g}f3/4c/4{G}c3/4B/4{gcd}c{g}f3/4g/4|  !
a3/4f/4d/4{e}B3/4{gef}e3/4d/4{g}c/4{d}B/2|
{gcd}c{e}A{GAG}A:| |:
a|  !
A3/4c/4{G}c3/4B/4{g}A3/4c/4{G}c3/4B/4|
{g}A3/4f/4{gef}e3/4d/4{gcd}c{g}f3/4g/4|
a3/4f/4{e}f3/4d/4{g}A3/4d/4{c}d3/4f/4|  !
{g}f3/4e/4{A}e3/4c/4{gBG}B{ag}a|1
A3/4c/4{G}c3/4B/4{g}A3/4c/4{G}c3/4B/4|
{g}A3/4f/4{gef}e3/4d/4{gcd}c{g}f3/4g/4|  !
a3/4f/4d/4{e}B3/4{gef}e3/4d/4{g}c/4{d}B/2|
{gcd}c{e}A{GAG}A:|2
A3/4B/4{G}B3/4c/4{G}c3/4d/4{G}d3/4e/4|  !
{A}e3/4f/4{gef}e3/4d/4{gcd}c{g}f3/4g/4|
a3/4f/4d/4{e}B3/4{gef}e3/4d/4{g}c/4{d}B/2|
{gcd}c{e}A{GAG}A:|  !
